; generated by PrusaSlicer 2.7.1+win64 on 2023-12-23 at 11:25:02 UTC

; 

; external perimeters extrusion width = 0.42mm
; perimeters extrusion width = 0.44mm
; infill extrusion width = 0.44mm
; solid infill extrusion width = 0.44mm
; top infill extrusion width = 0.40mm
; first layer extrusion width = 0.42mm

M201 X500 Y500 Z100 E5000 ; sets maximum accelerations, mm/sec^2
M203 X500 Y500 Z10 E60 ; sets maximum feedrates, mm / sec
M204 S500 T1000 ; sets acceleration (S) and retract acceleration (R), mm/sec^2
M205 X8.00 Y8.00 Z0.40 E5.00 ; sets the jerk limits, mm/sec
M205 S0 T0 ; sets the minimum extruding and travel feed rate, mm/sec

; printing object Abdeckung+Rotor+Steuerung.stl id:0 copy 0
; stop printing object Abdeckung+Rotor+Steuerung.stl id:0 copy 0

;TYPE:Custom
G90 ; use absolute coordinates
M83 ; extruder relative mode
M104 S150 ; set temporary nozzle temp to prevent oozing during homing
M140 S60 ; set final bed temp
G4 S30 ; allow partial nozzle warmup
G28 ; home all axis
G1 Z50 F240
G1 X2.0 Y10 F3000
M104 S210 ; set final nozzle temp
M190 S60 ; wait for bed temp to stabilize
M109 S210 ; wait for nozzle temp to stabilize
G1 Z0.28 F240
G92 E0
G1 X2.0 Y140 E10 F1500 ; prime the nozzle
G1 X2.3 Y140 F5000
G92 E0
G1 X2.3 Y10 E10 F1200 ; prime the nozzle
G92 E0
G21 ; set units to millimeters
G90 ; use absolute coordinates
M83 ; use relative distances for extrusion
; Filament gcode
M107
;LAYER_CHANGE
;Z:0.2
;HEIGHT:0.2
;BEFORE_LAYER_CHANGE
G92 E0
;0.2


G1 E-6 F3600
G1 Z.2 F9000
;AFTER_LAYER_CHANGE
;0.2
G1 X105.977 Y83.734
G1 Z.2
G1 E6 F2400
M204 S500
;TYPE:Skirt/Brim
;WIDTH:0.42
G1 F1200
G1 X106.87 Y82.942 E.03742
G1 X108.403 Y82.008 E.05628
G1 X109.516 Y81.577 E.03742
G1 X110.796 Y81.328 E.04089
G1 X111.918 Y81.22 E.03534
G1 X171.703 Y81.235 E1.87452
G1 X173.782 Y81.577 E.06606
G1 X174.895 Y82.008 E.03742
G1 X176.428 Y82.942 E.05628
G1 X177.321 Y83.734 E.03742
G1 X178.322 Y85.002 E.05065
G1 X179.088 Y86.334 E.04818
G1 X179.642 Y87.923 E.05276
G1 X179.784 Y88.673 E.02393
G1 X179.879 Y90.06 E.04359
G1 X179.879 Y111.77 E.6807
G1 X179.784 Y113.157 E.04359
G1 X179.642 Y113.907 E.02393
G1 X179.325 Y114.924 E.0334
G1 X178.66 Y116.31 E.0482
G1 X178.322 Y116.828 E.01939
G1 X177.321 Y118.096 E.05065
G1 X176.428 Y118.888 E.03742
G1 X174.895 Y119.822 E.05628
G1 X173.782 Y120.253 E.03742
G1 X172.502 Y120.502 E.04089
G1 X171.38 Y120.61 E.03534
G1 X111.651 Y120.597 E1.87276
G1 X110.366 Y120.418 E.04068
G1 X109.023 Y120.045 E.0437
G1 X108.253 Y119.709 E.02634
G1 X107.176 Y119.069 E.03928
G1 X106.513 Y118.554 E.02632
G1 X105.51 Y117.551 E.04447
G1 X104.995 Y116.888 E.02632
G1 X104.355 Y115.811 E.03928
G1 X104.019 Y115.041 E.02634
G1 X103.711 Y113.977 E.03473
G1 X103.541 Y113.13 E.02709
G1 X103.454 Y112.127 E.03157
G1 X103.419 Y90.065 E.69174
G1 X103.514 Y88.673 E.04375
G1 X103.657 Y87.923 E.02394
G1 X103.973 Y86.906 E.03339
G1 X104.638 Y85.52 E.0482
G1 X104.976 Y85.002 E.01939
G1 X105.94 Y83.781 E.04878
G1 E-4.2 F3600
;WIPE_START
G1 F7200
G1 X105.977 Y83.734 E-.02841
G1 X106.87 Y82.942 E-.56697
G1 X108.403 Y82.008 E-.85268
G1 X109.094 Y81.74 E-.35194
;WIPE_END
G1 X108.804 Y86.175 F9000
G1 E6 F2400
G1 F1200
G1 X108.867 Y86.099 E.0031
G1 X110.175 Y85.265 E.04864
G1 X110.989 Y85.019 E.02666
G1 X111.979 Y84.883 E.03133
G1 X171.404 Y84.887 E1.86323
G1 X173.061 Y85.243 E.05314
G1 X173.577 Y85.504 E.01813
G1 X174.508 Y86.162 E.03575
G1 X175.644 Y87.665 E.05907
G1 X176.187 Y89.491 E.05973
G1 X176.187 Y112.348 E.71667
G1 X175.475 Y114.482 E.07054
G1 X174.431 Y115.731 E.05104
G1 X173.123 Y116.565 E.04864
G1 X172.309 Y116.811 E.02666
G1 X171.319 Y116.946 E.03133
G1 X111.916 Y116.946 E1.86254
G1 X110.599 Y116.695 E.04204
G1 X109.375 Y116.11 E.04254
G1 X108.356 Y115.213 E.04257
G1 X107.625 Y114.116 E.04133
G1 X107.118 Y112.183 E.06266
G1 X107.111 Y89.483 E.71174
G1 X107.823 Y87.348 E.07057
G1 X108.765 Y86.221 E.04605
G1 X109.051 Y86.455 F9000
G1 F1200
G1 X109.097 Y86.399 E.00227
G1 X110.31 Y85.618 E.04523
G1 X111.056 Y85.391 E.02445
G1 X111.992 Y85.261 E.02963
G1 X171.384 Y85.264 E1.86219
G1 X172.914 Y85.591 E.04906
G1 X173.371 Y85.821 E.01604
G1 X174.266 Y86.453 E.03435
G1 X175.321 Y87.863 E.05521
G1 X175.81 Y89.518 E.05411
G1 X175.81 Y112.318 E.71488
G1 X175.189 Y114.226 E.06291
G1 X174.201 Y115.431 E.04886
G1 X172.988 Y116.212 E.04523
G1 X172.242 Y116.439 E.02445
G1 X171.306 Y116.569 E.02963
G1 X111.935 Y116.569 E1.86154
G1 X110.695 Y116.33 E.03959
G1 X109.563 Y115.782 E.03943
G1 X108.626 Y114.948 E.03933
G1 X107.957 Y113.935 E.03806
G1 X107.495 Y112.159 E.05754
G1 X107.488 Y89.513 E.71005
G1 X108.109 Y87.604 E.06294
G1 X109.013 Y86.502 E.04469
G1 X109.298 Y86.735 F9000
G1 F1200
G1 X109.328 Y86.699 E.00147
G1 X110.447 Y85.97 E.04187
G1 X111.124 Y85.762 E.02221
G1 X112.006 Y85.638 E.02793
G1 X171.364 Y85.641 E1.86113
G1 X172.768 Y85.94 E.04501
G1 X174.024 Y86.744 E.04676
G1 X174.97 Y88.004 E.0494
G1 X175.433 Y89.546 E.05048
G1 X175.433 Y112.288 E.71306
G1 X174.848 Y114.058 E.05845
G1 X173.971 Y115.131 E.04345
G1 X172.851 Y115.86 E.0419
G1 X172.174 Y116.068 E.02221
G1 X171.292 Y116.192 E.02793
G1 X111.952 Y116.192 E1.86056
G1 X110.835 Y115.979 E.03565
G1 X109.792 Y115.482 E.03623
G1 X108.926 Y114.719 E.03619
G1 X108.289 Y113.754 E.03625
G1 X107.872 Y112.135 E.05242
G1 X107.865 Y89.543 E.70836
G1 X108.45 Y87.772 E.05848
G1 X109.26 Y86.781 E.04013
G1 X109.547 Y87.013 F9000
G1 F1200
G1 X109.56 Y86.997 E.00065
G1 X110.585 Y86.322 E.03848
G1 X111.193 Y86.133 E.01996
G1 X112.019 Y86.015 E.02616
G1 X171.345 Y86.018 E1.86013
G1 X172.623 Y86.288 E.04096
G1 X173.743 Y86.997 E.04156
G1 X174.62 Y88.147 E.04535
G1 X175.055 Y89.575 E.04681
G1 X175.055 Y112.258 E.71121
G1 X174.533 Y113.848 E.05247
G1 X173.738 Y114.833 E.03969
G1 X172.713 Y115.508 E.03848
G1 X172.105 Y115.697 E.01996
G1 X171.279 Y115.815 E.02616
G1 X111.971 Y115.815 E1.85956
G1 X110.932 Y115.613 E.03319
G1 X109.981 Y115.154 E.03311
G1 X109.197 Y114.455 E.03293
G1 X108.622 Y113.574 E.03299
G1 X108.249 Y112.112 E.04731
G1 X108.243 Y89.573 E.70669
G1 X108.765 Y87.982 E.0525
G1 X109.51 Y87.06 E.03717
G1 X109.795 Y87.294 F9000
G1 F1200
G1 X110.724 Y86.673 E.03504
G1 X111.263 Y86.504 E.01771
G1 X112.033 Y86.392 E.0244
G1 X171.325 Y86.395 E1.85906
G1 X172.48 Y86.638 E.03701
G1 X173.503 Y87.289 E.03802
G1 X174.298 Y88.347 E.04149
G1 X174.678 Y89.602 E.04111
G1 X174.678 Y112.228 E.70942
G1 X174.216 Y113.641 E.04661
G1 X173.503 Y114.536 E.03588
G1 X172.574 Y115.157 E.03504
G1 X172.036 Y115.326 E.01768
G1 X171.265 Y115.438 E.02443
G1 X111.989 Y115.438 E1.85856
G1 X111.03 Y115.248 E.03065
G1 X110.171 Y114.828 E.02998
G1 X109.469 Y114.193 E.02968
G1 X108.956 Y113.397 E.02969
G1 X108.626 Y112.088 E.04233
G1 X108.62 Y89.603 E.705
G1 X109.082 Y88.189 E.04664
G1 X109.757 Y87.34 E.03401
G1 X110.031 Y87.588 F9000
G1 F1200
G1 X110.866 Y87.024 E.03159
G1 X112.047 Y86.769 E.03788
G1 X171.306 Y86.772 E1.85802
G1 X172.339 Y86.988 E.03309
G1 X173.263 Y87.582 E.03444
G1 X173.948 Y88.49 E.03566
G1 X174.301 Y89.631 E.03745
G1 X174.301 Y112.199 E.7076
G1 X173.899 Y113.435 E.04075
G1 X173.267 Y114.241 E.03211
G1 X172.432 Y114.806 E.03161
G1 X171.251 Y115.061 E.03788
G1 X112.007 Y115.061 E1.85755
G1 X111.17 Y114.898 E.02674
G1 X110.403 Y114.529 E.02669
G1 X109.741 Y113.931 E.02797
G1 X109.291 Y113.221 E.02636
G1 X109.003 Y112.066 E.03732
G1 X108.997 Y89.632 E.7034
G1 X109.399 Y88.395 E.04078
G1 X109.994 Y87.636 E.03024
G1 X110.27 Y87.881 F9000
G1 F1200
G1 X111.009 Y87.374 E.0281
G1 X112.062 Y87.146 E.03378
G1 X171.287 Y87.149 E1.85696
G1 X172.201 Y87.34 E.02928
G1 X172.984 Y87.837 E.02908
G1 X173.599 Y88.637 E.03164
G1 X173.924 Y89.661 E.03369
G1 X173.924 Y112.169 E.70572
G1 X173.58 Y113.231 E.035
G1 X173.028 Y113.948 E.02837
G1 X172.289 Y114.456 E.02812
G1 X171.237 Y114.684 E.03375
G1 X112.026 Y114.684 E1.85652
G1 X111.269 Y114.533 E.0242
G1 X110.595 Y114.203 E.02353
G1 X110.016 Y113.671 E.02465
G1 X109.627 Y113.048 E.02303
G1 X109.38 Y112.043 E.03245
G1 X109.374 Y89.661 E.70177
G1 X109.718 Y88.599 E.035
G1 X110.234 Y87.929 E.02652
G1 X110.512 Y88.172 F9000
G1 F1200
G1 X111.155 Y87.722 E.02461
G1 X112.076 Y87.523 E.02954
G1 X171.268 Y87.527 E1.85592
G1 X172.067 Y87.692 E.02558
G1 X172.746 Y88.131 E.02535
G1 X173.278 Y88.837 E.02772
G1 X173.547 Y89.69 E.02804
G1 X173.547 Y112.14 E.7039
G1 X173.26 Y113.03 E.02932
G1 X172.786 Y113.658 E.02467
G1 X172.143 Y114.108 E.02461
G1 X171.222 Y114.307 E.02954
G1 X112.046 Y114.307 E1.85542
G1 X111.368 Y114.169 E.02169
G1 X110.829 Y113.907 E.01879
G1 X110.291 Y113.412 E.02292
G1 X109.964 Y112.878 E.01963
G1 X109.757 Y112.021 E.02764
G1 X109.751 Y89.691 E.70014
G1 X110.038 Y88.8 E.02935
G1 X110.476 Y88.22 E.02279
G1 X110.757 Y88.46 F9000
G1 F1200
G1 X111.304 Y88.07 E.02106
G1 X112.091 Y87.9 E.02524
G1 X171.248 Y87.904 E1.85483
G1 X171.94 Y88.048 E.02216
G1 X172.507 Y88.424 E.02133
G1 X172.956 Y89.034 E.02375
G1 X173.17 Y89.718 E.02247
G1 X173.17 Y112.11 E.70209
G1 X172.938 Y112.832 E.02378
G1 X172.541 Y113.369 E.02094
G1 X171.994 Y113.76 E.02108
G1 X171.207 Y113.93 E.02524
G1 X112.066 Y113.93 E1.85432
G1 X111.47 Y113.805 E.01909
G1 X111.024 Y113.583 E.01562
G1 X110.569 Y113.157 E.01954
G1 X110.303 Y112.711 E.01628
G1 X110.134 Y111.999 E.02294
G1 X110.128 Y89.72 E.69854
G1 X110.36 Y88.998 E.02378
G1 X110.721 Y88.509 E.01906
G1 X111.005 Y88.746 F9000
G1 F1200
G1 X111.456 Y88.416 E.01752
G1 X112.107 Y88.277 E.02087
G1 X171.228 Y88.281 E1.8537
G1 X171.809 Y88.405 E.01863
G1 X172.227 Y88.679 E.01567
G1 X172.608 Y89.183 E.01981
G1 X172.793 Y89.749 E.01867
G1 X172.793 Y112.081 E.7002
G1 X172.614 Y112.637 E.01831
G1 X172.293 Y113.084 E.01725
G1 X171.842 Y113.414 E.01752
G1 X171.191 Y113.553 E.02087
G1 X112.086 Y113.553 E1.8532
G1 X111.576 Y113.442 E.01637
G1 X111.222 Y113.261 E.01247
G1 X110.851 Y112.905 E.01612
G1 X110.644 Y112.547 E.01297
G1 X110.511 Y111.978 E.01832
G1 X110.505 Y89.749 E.69697
G1 X110.684 Y89.193 E.01831
G1 X110.97 Y88.794 E.01539
G1 X111.277 Y89.014 F9000
G1 F1200
G1 X111.294 Y88.99 E.00092
G1 X111.611 Y88.76 E.01228
G1 X112.123 Y88.654 E.01639
G1 X171.21 Y88.658 E1.85263
G1 X171.642 Y88.744 E.01381
G1 X171.949 Y88.936 E.01135
G1 X172.288 Y89.385 E.01764
G1 X172.416 Y89.779 E.01299
G1 X172.416 Y112.051 E.69832
G1 X172.29 Y112.441 E.01285
G1 X172.004 Y112.839 E.01537
G1 X171.687 Y113.069 E.01228
G1 X171.175 Y113.176 E.0164
G1 X112.108 Y113.176 E1.852
G1 X111.459 Y112.966 E.02139
G1 X111.003 Y112.428 E.02211
G1 X110.888 Y111.955 E.01526
G1 X110.882 Y89.779 E.69531
G1 X111.008 Y89.389 E.01285
G1 X111.242 Y89.063 E.01258
G1 X111.574 Y89.25 F9000
G1 F1200
G1 X111.581 Y89.237 E.00046
G1 X111.801 Y89.09 E.0083
G1 X112.14 Y89.031 E.01079
G1 X171.195 Y89.035 E1.85163
G1 X171.486 Y89.088 E.00927
G1 X171.673 Y89.196 E.00677
G1 X171.968 Y89.587 E.01536
G1 X172.039 Y89.808 E.00728
G1 X172.039 Y112.022 E.6965
G1 X171.967 Y112.245 E.00735
G1 X171.527 Y112.728 E.02049
G1 X171.158 Y112.799 E.01178
G1 X112.131 Y112.799 E1.85075
G1 X111.795 Y112.719 E.01083
G1 X111.442 Y112.435 E.01421
G1 X111.265 Y111.933 E.01669
G1 X111.259 Y89.808 E.69371
G1 X111.544 Y89.302 E.01821
G1 X111.86 Y89.537 F9000
G1 F1200
G1 X111.924 Y89.451 E.00336
G1 X171.175 Y89.412 E1.85777
G1 X171.434 Y89.489 E.00847
G1 X171.662 Y89.837 E.01304
G1 X171.662 Y111.993 E.69469
G1 X171.374 Y112.379 E.0151
G1 X112.156 Y112.421 E1.85674
G1 X111.877 Y112.338 E.00913
G1 X111.702 Y112.146 E.00815
G1 X111.643 Y111.908 E.00769
G1 X111.636 Y89.837 E.69202
G1 X111.824 Y89.585 E.00986
; printing object Abdeckung+Rotor+Steuerung.stl id:0 copy 0
G1 X112.789 Y90.561 F9000
;TYPE:Perimeter
;WIDTH:0.419999
G1 F1200
G1 X170.509 Y90.561 E1.80977
G1 X170.509 Y111.269 E.64928
G1 X112.795 Y111.269 E1.80958
G1 X112.789 Y90.621 E.6474
G1 X112.412 Y90.184 F9000
G1 F1200
G1 X170.886 Y90.184 E1.83341
G1 X170.886 Y111.646 E.67292
G1 X112.418 Y111.646 E1.83322
G1 X112.412 Y90.244 E.67104
G1 X112.035 Y89.995 F9000
;TYPE:External perimeter
G1 F1200
G1 X112.089 Y89.859 E.00459
G1 X112.179 Y89.807 E.00326
G1 X171.107 Y89.807 E1.84764
G1 X171.209 Y89.859 E.00359
G1 X171.263 Y89.995 E.00459
G1 X171.263 Y111.835 E.68478
G1 X171.209 Y111.97 E.00456
G1 X171.119 Y112.023 E.00327
G1 X112.209 Y112.023 E1.84708
G1 X112.103 Y112 E.0034
G1 X112.041 Y111.878 E.00429
G1 X112.035 Y90.055 E.68424
G1 E-4.2 F3600
;WIPE_START
G1 F7200
G1 X112.035 Y89.995 E-.0285
G1 X112.089 Y89.859 E-.06951
G1 X112.179 Y89.807 E-.04937
G1 X115.658 Y89.807 E-1.65262
;WIPE_END
G1 X169.625 Y90.682 F9000
G1 E6 F2400
;TYPE:Solid infill
;WIDTH:0.420759
G1 F1200
G1 X170.219 Y91.276 E.02639
G1 X170.219 Y91.81 E.01678
G1 X169.26 Y90.851 E.04261
G1 X168.725 Y90.851 E.01681
G1 X170.219 Y92.345 E.06638
G1 X170.219 Y92.879 E.01678
G1 X168.191 Y90.851 E.09011
G1 X167.657 Y90.851 E.01678
G1 X170.219 Y93.413 E.11383
G1 X170.219 Y93.948 E.01681
G1 X167.122 Y90.851 E.1376
G1 X166.588 Y90.851 E.01678
G1 X170.219 Y94.482 E.16133
G1 X170.219 Y95.016 E.01678
G1 X166.054 Y90.851 E.18506
G1 X165.519 Y90.851 E.01681
G1 X170.219 Y95.551 E.20883
G1 X170.219 Y96.085 E.01678
G1 X164.985 Y90.851 E.23255
G1 X164.451 Y90.851 E.01678
G1 X170.219 Y96.619 E.25628
G1 X170.219 Y97.154 E.01681
G1 X163.916 Y90.851 E.28005
G1 X163.382 Y90.851 E.01678
G1 X170.219 Y97.688 E.30377
G1 X170.219 Y98.222 E.01678
G1 X162.848 Y90.851 E.3275
G1 X162.313 Y90.851 E.01681
G1 X170.219 Y98.757 E.35127
G1 X170.219 Y99.291 E.01678
G1 X161.779 Y90.851 E.375
G1 X161.245 Y90.851 E.01678
G1 X170.219 Y99.826 E.39875
G1 X170.219 Y100.36 E.01678
G1 X160.71 Y90.851 E.42249
G1 X160.176 Y90.851 E.01678
G1 X170.219 Y100.894 E.44622
G1 X170.219 Y101.429 E.01681
G1 X159.642 Y90.851 E.46997
G1 X159.107 Y90.851 E.01681
G1 X170.219 Y101.963 E.49372
G1 X170.219 Y102.497 E.01678
G1 X158.573 Y90.851 E.51744
G1 X158.039 Y90.851 E.01678
G1 X170.219 Y103.032 E.54119
G1 X170.219 Y103.566 E.01678
G1 X157.504 Y90.851 E.56494
G1 X156.97 Y90.851 E.01678
G1 X170.219 Y104.1 E.58867
G1 X170.219 Y104.635 E.01681
G1 X156.436 Y90.851 E.61241
G1 X155.901 Y90.851 E.01681
G1 X170.219 Y105.169 E.63616
G1 X170.219 Y105.703 E.01678
G1 X155.367 Y90.851 E.65989
G1 X154.833 Y90.851 E.01678
G1 X170.219 Y106.238 E.68364
G1 X170.219 Y106.772 E.01678
G1 X154.298 Y90.851 E.70739
G1 X153.764 Y90.851 E.01678
G1 X170.219 Y107.306 E.73111
G1 X170.219 Y107.841 E.01681
G1 X153.229 Y90.851 E.75488
G1 X152.695 Y90.851 E.01678
G1 X170.219 Y108.375 E.77861
G1 X170.219 Y108.909 E.01678
G1 X152.161 Y90.851 E.80233
G1 X151.626 Y90.851 E.01681
G1 X170.219 Y109.444 E.82611
G1 X170.219 Y109.978 E.01678
G1 X151.092 Y90.851 E.84983
G1 X150.558 Y90.851 E.01678
G1 X170.219 Y110.512 E.87356
G1 X170.219 Y110.978 E.01464
G1 X170.15 Y110.978 E.00217
G1 X150.023 Y90.851 E.89426
G1 X149.489 Y90.851 E.01678
G1 X169.616 Y110.978 E.89426
G1 X169.082 Y110.978 E.01678
G1 X148.955 Y90.851 E.89426
G1 X148.42 Y90.851 E.01681
G1 X168.547 Y110.978 E.89426
G1 X168.013 Y110.978 E.01678
G1 X147.886 Y90.851 E.89426
G1 X147.352 Y90.851 E.01678
G1 X167.479 Y110.978 E.89426
G1 X166.944 Y110.978 E.01681
G1 X146.817 Y90.851 E.89426
G1 X146.283 Y90.851 E.01678
G1 X166.41 Y110.978 E.89426
G1 X165.876 Y110.978 E.01678
G1 X145.749 Y90.851 E.89426
G1 X145.214 Y90.851 E.01681
G1 X165.341 Y110.978 E.89426
G1 X164.807 Y110.978 E.01678
G1 X144.68 Y90.851 E.89426
G1 X144.146 Y90.851 E.01678
G1 X164.273 Y110.978 E.89426
G1 X163.738 Y110.978 E.01681
G1 X143.611 Y90.851 E.89426
G1 X143.077 Y90.851 E.01678
G1 X163.204 Y110.978 E.89426
G1 X162.67 Y110.978 E.01678
G1 X142.543 Y90.851 E.89426
G1 X142.008 Y90.851 E.01681
G1 X162.135 Y110.978 E.89426
G1 X161.601 Y110.978 E.01678
G1 X141.474 Y90.851 E.89426
G1 X140.94 Y90.851 E.01678
G1 X161.066 Y110.978 E.89424
G1 X160.532 Y110.978 E.01678
G1 X140.405 Y90.851 E.89426
G1 X139.871 Y90.851 E.01678
G1 X159.998 Y110.978 E.89426
G1 X159.463 Y110.978 E.01681
G1 X139.337 Y90.851 E.89424
G1 X138.802 Y90.851 E.01681
G1 X158.929 Y110.978 E.89426
G1 X158.395 Y110.978 E.01678
G1 X138.268 Y90.851 E.89426
G1 X137.733 Y90.851 E.01681
G1 X157.86 Y110.978 E.89426
G1 X157.326 Y110.978 E.01678
G1 X137.199 Y90.851 E.89426
G1 X136.665 Y90.851 E.01678
G1 X156.792 Y110.978 E.89426
