; generated by PrusaSlicer 2.7.1+win64 on 2023-12-18 at 14:17:35 UTC

; 

; external perimeters extrusion width = 0.42mm
; perimeters extrusion width = 0.44mm
; infill extrusion width = 0.44mm
; solid infill extrusion width = 0.44mm
; top infill extrusion width = 0.40mm
; first layer extrusion width = 0.42mm

M201 X500 Y500 Z100 E5000 ; sets maximum accelerations, mm/sec^2
M203 X500 Y500 Z10 E60 ; sets maximum feedrates, mm / sec
M204 S500 T1000 ; sets acceleration (S) and retract acceleration (R), mm/sec^2
M205 X8.00 Y8.00 Z0.40 E5.00 ; sets the jerk limits, mm/sec
M205 S0 T0 ; sets the minimum extruding and travel feed rate, mm/sec

; printing object Abdeckung+Rotor+Steuerung.stl id:0 copy 0
; stop printing object Abdeckung+Rotor+Steuerung.stl id:0 copy 0

;TYPE:Custom
G90 ; use absolute coordinates
M83 ; extruder relative mode
M104 S150 ; set temporary nozzle temp to prevent oozing during homing
M140 S60 ; set final bed temp
G4 S30 ; allow partial nozzle warmup
G28 ; home all axis
G1 Z50 F240
G1 X2.0 Y10 F3000
M104 S210 ; set final nozzle temp
M190 S60 ; wait for bed temp to stabilize
M109 S210 ; wait for nozzle temp to stabilize
G1 Z0.28 F240
G92 E0
G1 X2.0 Y140 E10 F1500 ; prime the nozzle
G1 X2.3 Y140 F5000
G92 E0
G1 X2.3 Y10 E10 F1200 ; prime the nozzle
G92 E0
G21 ; set units to millimeters
G90 ; use absolute coordinates
M83 ; use relative distances for extrusion
; Filament gcode
M107
;LAYER_CHANGE
;Z:0.2
;HEIGHT:0.2
;BEFORE_LAYER_CHANGE
G92 E0
;0.2


G1 E-6 F3600
G1 Z.2 F9000
;AFTER_LAYER_CHANGE
;0.2
G1 X116.103 Y82.939
G1 Z.2
G1 E6 F2400
M204 S500
;TYPE:Skirt/Brim
;WIDTH:0.42
G1 F1200
G1 X117.104 Y81.67 E.05068
G1 X117.997 Y80.879 E.0374
G1 X119.53 Y79.945 E.05628
G1 X120.643 Y79.514 E.03742
G1 X121.923 Y79.265 E.04089
G1 X123.043 Y79.157 E.03528
G1 X181.383 Y79.131 E1.82921
G1 X182.518 Y79.216 E.03569
G1 X183.268 Y79.359 E.02394
G1 X184.857 Y79.913 E.05276
G1 X186.189 Y80.678 E.04816
G1 X187.457 Y81.68 E.05067
G1 X188.249 Y82.573 E.03742
G1 X189.183 Y84.106 E.05628
G1 X189.614 Y85.219 E.03742
G1 X189.955 Y87.297 E.06603
G1 X190.006 Y109.701 E.70246
G1 X189.911 Y111.094 E.04378
G1 X189.768 Y111.843 E.02391
G1 X189.452 Y112.861 E.03342
G1 X188.786 Y114.246 E.04819
G1 X188.449 Y114.765 E.0194
G1 X187.448 Y116.033 E.05065
G1 X186.555 Y116.825 E.03742
G1 X185.022 Y117.759 E.05628
G1 X183.909 Y118.19 E.03742
G1 X182.629 Y118.439 E.04089
G1 X181.507 Y118.547 E.03534
G1 X122.778 Y118.534 E1.84141
G1 X121.493 Y118.355 E.04068
G1 X120.15 Y117.982 E.0437
G1 X119.38 Y117.646 E.02634
G1 X118.303 Y117.006 E.03928
G1 X117.64 Y116.491 E.02632
G1 X116.637 Y115.488 E.04447
G1 X116.122 Y114.825 E.02632
G1 X115.481 Y113.748 E.0393
G1 X115.146 Y112.978 E.02633
G1 X114.837 Y111.913 E.03477
G1 X114.668 Y111.067 E.02705
G1 X114.581 Y110.064 E.03157
G1 X114.546 Y88.002 E.69174
G1 X114.641 Y86.61 E.04375
G1 X114.783 Y85.86 E.02393
G1 X115.1 Y84.842 E.03343
G1 X115.765 Y83.457 E.04817
G1 X116.07 Y82.989 E.01751
G1 E-4.2 F3600
;WIPE_START
G1 F7200
G1 X116.103 Y82.939 E-.02846
G1 X117.104 Y81.67 E-.76773
G1 X117.997 Y80.879 E-.56665
G1 X118.783 Y80.4 E-.43716
;WIPE_END
G1 X119.246 Y84.921 F9000
G1 E6 F2400
G1 F1200
G1 X119.436 Y84.609 E.01145
G1 X120.48 Y83.666 E.04411
G1 X121.253 Y83.224 E.02792
G1 X123.056 Y82.82 E.05793
G1 X181.745 Y82.825 E1.84015
G1 X183.498 Y83.336 E.05725
G1 X184.93 Y84.389 E.05573
G1 X185.896 Y85.835 E.05452
G1 X186.307 Y87.636 E.05792
G1 X186.314 Y110.251 E.70908
G1 X185.94 Y111.74 E.04814
G1 X185.116 Y113.094 E.0497
G1 X184.071 Y114.038 E.04415
G1 X183.299 Y114.479 E.02788
G1 X181.496 Y114.883 E.05793
G1 X123.043 Y114.883 E1.83275
G1 X121.726 Y114.632 E.04204
G1 X120.502 Y114.047 E.04254
G1 X119.483 Y113.15 E.04257
G1 X118.752 Y112.053 E.04133
G1 X118.245 Y110.119 E.06269
G1 X118.238 Y87.453 E.71068
G1 X118.612 Y85.964 E.04814
G1 X119.215 Y84.972 E.0364
G1 X119.534 Y85.169 F9000
G1 F1200
G1 X119.742 Y84.831 E.01244
G1 X120.716 Y83.961 E.04095
G1 X121.414 Y83.566 E.02515
G1 X123.077 Y83.197 E.05341
G1 X181.718 Y83.202 E1.83865
G1 X183.358 Y83.688 E.05363
G1 X184.677 Y84.67 E.05156
G1 X185.562 Y86.013 E.05043
G1 X185.93 Y87.657 E.05282
G1 X185.937 Y110.227 E.70767
G1 X185.582 Y111.618 E.04501
G1 X184.81 Y112.872 E.04617
G1 X183.836 Y113.742 E.04095
G1 X183.138 Y114.137 E.02515
G1 X181.475 Y114.506 E.05341
G1 X123.061 Y114.506 E1.83153
G1 X121.822 Y114.266 E.03957
G1 X120.69 Y113.719 E.03942
G1 X119.753 Y112.885 E.03933
G1 X119.084 Y111.872 E.03806
G1 X118.622 Y110.095 E.05757
G1 X118.615 Y87.476 E.7092
G1 X118.97 Y86.085 E.04501
G1 X119.502 Y85.22 E.03184
G1 X119.82 Y85.418 F9000
G1 F1200
G1 X120.046 Y85.055 E.01341
G1 X120.949 Y84.258 E.03776
G1 X121.573 Y83.909 E.02242
G1 X123.097 Y83.574 E.04892
G1 X181.689 Y83.579 E1.83711
G1 X183.216 Y84.039 E.05
G1 X184.423 Y84.95 E.04741
G1 X185.227 Y86.189 E.04631
G1 X185.553 Y87.677 E.04776
G1 X185.56 Y110.203 E.70629
G1 X185.225 Y111.495 E.04185
G1 X184.505 Y112.649 E.04265
G1 X183.603 Y113.446 E.03774
G1 X182.979 Y113.794 E.0224
G1 X181.455 Y114.129 E.04892
G1 X123.079 Y114.129 E1.83034
G1 X121.962 Y113.915 E.03566
G1 X120.919 Y113.418 E.03623
G1 X120.053 Y112.656 E.03617
G1 X119.416 Y111.69 E.03628
G1 X118.999 Y110.072 E.05239
G1 X118.992 Y87.501 E.7077
G1 X119.327 Y86.209 E.04185
G1 X119.788 Y85.469 E.02734
G1 X120.104 Y85.668 F9000
G1 F1200
G1 X120.35 Y85.28 E.0144
G1 X121.181 Y84.556 E.03456
G1 X121.73 Y84.253 E.01966
G1 X123.117 Y83.952 E.0445
G1 X181.662 Y83.956 E1.83564
G1 X183.018 Y84.361 E.04437
G1 X184.127 Y85.187 E.04336
G1 X184.866 Y86.305 E.04202
G1 X185.176 Y87.698 E.04474
G1 X185.182 Y110.178 E.70484
G1 X184.868 Y111.37 E.03865
G1 X184.202 Y112.423 E.03907
G1 X183.371 Y113.148 E.03458
G1 X182.821 Y113.451 E.01969
G1 X181.435 Y113.752 E.04447
G1 X123.097 Y113.752 E1.82915
G1 X122.059 Y113.55 E.03316
G1 X121.107 Y113.091 E.03314
G1 X120.323 Y112.392 E.03293
G1 X119.749 Y111.511 E.03297
G1 X119.376 Y110.048 E.04734
G1 X119.369 Y87.525 E.70619
G1 X119.684 Y86.334 E.03863
G1 X120.072 Y85.719 E.0228
G1 X120.387 Y85.921 F9000
G1 F1200
G1 X120.651 Y85.508 E.01537
G1 X121.411 Y84.856 E.0314
G1 X121.886 Y84.597 E.01696
G1 X123.137 Y84.329 E.04011
G1 X181.634 Y84.333 E1.83413
G1 X182.876 Y84.712 E.04071
G1 X183.872 Y85.466 E.03917
G1 X184.531 Y86.481 E.03794
G1 X184.799 Y87.718 E.03969
G1 X184.805 Y110.153 E.70343
G1 X184.512 Y111.243 E.03539
G1 X183.9 Y112.196 E.03551
G1 X183.141 Y112.848 E.03137
G1 X182.666 Y113.106 E.01695
G1 X181.416 Y113.375 E.04009
G1 X123.116 Y113.375 E1.82796
G1 X122.157 Y113.185 E.03065
G1 X121.298 Y112.764 E.02999
G1 X120.596 Y112.13 E.02966
G1 X120.083 Y111.333 E.02972
G1 X119.753 Y110.025 E.0423
G1 X119.747 Y87.551 E.70466
G1 X120.04 Y86.461 E.03539
G1 X120.354 Y85.971 E.01825
G1 X120.666 Y86.175 F9000
G1 F1200
G1 X120.951 Y85.738 E.01636
G1 X121.638 Y85.157 E.02821
G1 X122.039 Y84.943 E.01425
G1 X123.156 Y84.706 E.0358
G1 X181.606 Y84.711 E1.83266
G1 X182.678 Y85.034 E.0351
G1 X183.578 Y85.703 E.03516
G1 X184.171 Y86.597 E.03364
G1 X184.422 Y87.738 E.03663
G1 X184.428 Y110.127 E.70199
G1 X184.156 Y111.113 E.03207
G1 X183.6 Y111.965 E.0319
G1 X182.914 Y112.546 E.02819
G1 X182.513 Y112.761 E.01427
G1 X181.396 Y112.998 E.0358
G1 X123.134 Y112.998 E1.82676
G1 X122.297 Y112.835 E.02674
G1 X121.53 Y112.466 E.02669
G1 X120.868 Y111.867 E.02799
G1 X120.418 Y111.158 E.02633
G1 X120.13 Y110.002 E.03735
G1 X120.124 Y87.577 E.70312
G1 X120.395 Y86.59 E.03209
G1 X120.634 Y86.225 E.01368
G1 X120.949 Y86.431 F9000
G1 F1200
G1 X121.251 Y85.968 E.01733
G1 X121.862 Y85.461 E.02489
G1 X122.19 Y85.289 E.01161
G1 X123.175 Y85.083 E.03155
G1 X181.577 Y85.088 E1.83115
G1 X182.533 Y85.384 E.03138
G1 X183.322 Y85.983 E.03106
G1 X183.835 Y86.772 E.02951
G1 X184.045 Y87.758 E.03161
G1 X184.051 Y110.102 E.70058
G1 X183.824 Y110.932 E.02698
G1 X183.301 Y111.735 E.03005
G1 X182.69 Y112.243 E.02491
G1 X182.362 Y112.415 E.01161
G1 X181.377 Y112.621 E.03155
G1 X123.153 Y112.621 E1.82557
G1 X122.396 Y112.47 E.0242
G1 X121.722 Y112.14 E.02353
G1 X121.143 Y111.608 E.02465
G1 X120.754 Y110.985 E.02303
G1 X120.507 Y109.98 E.03245
G1 X120.501 Y87.601 E.70168
G1 X120.727 Y86.772 E.02694
G1 X120.917 Y86.481 E.0109
G1 X121.226 Y86.687 F9000
G1 F1200
G1 X121.548 Y86.202 E.01825
G1 X122.338 Y85.637 E.03045
G1 X123.194 Y85.46 E.02741
G1 X181.549 Y85.465 E1.82968
G1 X182.332 Y85.705 E.02568
G1 X183.067 Y86.262 E.02892
G1 X183.497 Y86.943 E.02525
G1 X183.668 Y87.776 E.02666
G1 X183.674 Y110.076 E.6992
G1 X183.47 Y110.8 E.02358
G1 X183.004 Y111.501 E.02639
G1 X182.469 Y111.937 E.02164
G1 X182.214 Y112.067 E.00897
G1 X181.358 Y112.244 E.02741
G1 X123.172 Y112.244 E1.82438
G1 X122.495 Y112.105 E.02167
G1 X121.956 Y111.844 E.01878
G1 X121.418 Y111.349 E.02292
G1 X121.091 Y110.814 E.01966
G1 X120.884 Y109.958 E.02761
G1 X120.878 Y87.628 E.70014
G1 X121.082 Y86.904 E.02358
G1 X121.193 Y86.737 E.00629
G1 X121.499 Y86.945 F9000
G1 F1200
G1 X121.843 Y86.44 E.01916
G1 X122.482 Y85.986 E.02458
G1 X123.213 Y85.837 E.02339
G1 X181.519 Y85.842 E1.82814
G1 X182.184 Y86.053 E.02188
G1 X182.807 Y86.537 E.02474
G1 X183.158 Y87.109 E.02104
G1 X183.291 Y87.793 E.02185
G1 X183.297 Y110.048 E.69779
G1 X183.117 Y110.664 E.02012
G1 X182.709 Y111.264 E.02275
G1 X182.07 Y111.718 E.02458
G1 X181.339 Y111.867 E.02339
G1 X123.192 Y111.867 E1.82316
G1 X122.597 Y111.742 E.01906
G1 X122.151 Y111.519 E.01563
G1 X121.696 Y111.093 E.01954
G1 X121.43 Y110.647 E.01628
G1 X121.261 Y109.936 E.02291
G1 X121.255 Y87.656 E.69857
G1 X121.435 Y87.039 E.02015
G1 X121.465 Y86.995 E.00167
G1 X121.786 Y87.18 F9000
G1 F1200
G1 X122.134 Y86.681 E.01907
G1 X122.62 Y86.337 E.01867
G1 X123.231 Y86.214 E.01954
G1 X181.488 Y86.219 E1.82661
G1 X182.031 Y86.399 E.01794
G1 X182.542 Y86.808 E.02052
G1 X182.815 Y87.27 E.01683
G1 X182.914 Y87.809 E.01718
G1 X182.92 Y110.019 E.69638
G1 X182.766 Y110.524 E.01655
G1 X182.418 Y111.023 E.01907
G1 X182.04 Y111.315 E.01498
G1 X181.321 Y111.49 E.0232
G1 X123.213 Y111.49 E1.82194
G1 X122.703 Y111.379 E.01637
G1 X122.349 Y111.198 E.01247
G1 X121.978 Y110.842 E.01612
G1 X121.771 Y110.484 E.01297
G1 X121.638 Y109.915 E.01832
G1 X121.632 Y87.685 E.69701
G1 X121.768 Y87.237 E.01468
G1 X122.126 Y87.352 F9000
G1 F1200
G1 X122.134 Y87.326 E.00085
G1 X122.421 Y86.926 E.01544
G1 X122.75 Y86.691 E.01268
G1 X123.25 Y86.591 E.01599
G1 X181.454 Y86.596 E1.82495
G1 X181.872 Y86.742 E.01388
G1 X182.276 Y87.076 E.01644
G1 X182.451 Y87.372 E.01078
G1 X182.537 Y87.827 E.01452
G1 X182.543 Y109.988 E.69484
G1 X182.417 Y110.378 E.01285
G1 X182.131 Y110.777 E.01539
G1 X181.802 Y111.012 E.01268
G1 X181.302 Y111.112 E.01599
G1 X123.235 Y111.112 E1.82065
G1 X122.586 Y110.903 E.02138
G1 X122.13 Y110.365 E.02211
G1 X122.015 Y109.891 E.01529
G1 X122.009 Y87.715 E.69531
G1 X122.108 Y87.409 E.01008
G1 X122.463 Y87.609 F9000
G1 F1200
G1 X122.708 Y87.173 E.01568
G1 X122.885 Y87.048 E.00679
G1 X123.27 Y86.968 E.01233
G1 X181.423 Y86.973 E1.82335
G1 X181.658 Y87.055 E.0078
G1 X182.006 Y87.342 E.01414
G1 X182.16 Y87.842 E.0164
G1 X182.166 Y109.959 E.69346
G1 X182.094 Y110.182 E.00735
G1 X181.667 Y110.655 E.01998
G1 X181.282 Y110.735 E.01233
G1 X123.258 Y110.735 E1.8193
G1 X122.922 Y110.656 E.01082
G1 X122.568 Y110.372 E.01423
G1 X122.392 Y109.87 E.01668
G1 X122.386 Y87.745 E.69371
G1 X122.433 Y87.661 E.00302
G1 X122.763 Y87.774 F9000
G1 F1200
G1 X123.05 Y87.388 E.01508
G1 X181.391 Y87.35 E1.82924
G1 X181.706 Y87.572 E.01208
G1 X181.782 Y87.86 E.00934
G1 X181.789 Y109.929 E.69196
G1 X181.501 Y110.316 E.01513
G1 X123.282 Y110.358 E1.82542
G1 X123.004 Y110.275 E.0091
G1 X122.829 Y110.083 E.00815
G1 X122.769 Y109.845 E.0077
G1 X122.763 Y87.834 E.69014
; printing object Abdeckung+Rotor+Steuerung.stl id:0 copy 0
G1 X123.916 Y88.498 F9000
;TYPE:Perimeter
;WIDTH:0.419999
G1 F1200
G1 X180.63 Y88.503 E1.77822
G1 X180.636 Y109.206 E.64913
G1 X123.922 Y109.206 E1.77822
G1 X123.916 Y88.558 E.6474
G1 X123.539 Y88.121 F9000
G1 F1200
G1 X181.007 Y88.126 E1.80187
G1 X181.013 Y109.583 E.67277
G1 X123.545 Y109.583 E1.80187
G1 X123.539 Y88.181 E.67104
G1 X123.162 Y87.932 F9000
;TYPE:External perimeter
G1 F1200
G1 X123.216 Y87.796 E.00459
G1 X123.306 Y87.744 E.00326
G1 X181.235 Y87.749 E1.81632
G1 X181.329 Y87.782 E.00312
G1 X181.384 Y87.896 E.00397
G1 X181.39 Y109.772 E.68591
G1 X181.336 Y109.907 E.00456
G1 X181.246 Y109.96 E.00327
G1 X123.336 Y109.96 E1.81572
G1 X123.229 Y109.937 E.00343
G1 X123.168 Y109.815 E.00428
G1 X123.162 Y87.992 E.68424
G1 E-4.2 F3600
;WIPE_START
G1 F7200
G1 X123.162 Y87.932 E-.0285
G1 X123.216 Y87.796 E-.06951
G1 X123.306 Y87.744 E-.04937
G1 X126.785 Y87.744 E-1.65262
;WIPE_END
G1 X179.745 Y88.623 F9000
G1 E6 F2400
;TYPE:Solid infill
;WIDTH:0.421043
G1 F1200
G1 X180.34 Y89.218 E.02646
G1 X180.34 Y89.753 E.01682
G1 X179.38 Y88.793 E.04269
G1 X178.845 Y88.793 E.01682
G1 X180.34 Y90.288 E.06647
G1 X180.34 Y90.823 E.01682
G1 X178.31 Y88.793 E.09026
G1 X177.775 Y88.793 E.01682
G1 X180.34 Y91.358 E.11405
G1 X180.341 Y91.893 E.01682
G1 X177.24 Y88.793 E.13786
G1 X176.706 Y88.793 E.01679
G1 X180.341 Y92.428 E.16163
G1 X180.341 Y92.963 E.01682
G1 X176.171 Y88.793 E.18542
G1 X175.636 Y88.793 E.01682
G1 X180.341 Y93.498 E.2092
G1 X180.341 Y94.032 E.01679
G1 X175.101 Y88.793 E.23297
G1 X174.567 Y88.793 E.01679
G1 X180.341 Y94.567 E.25674
G1 X180.341 Y95.102 E.01682
G1 X174.032 Y88.793 E.28053
G1 X173.497 Y88.792 E.01682
G1 X180.342 Y95.637 E.30436
G1 X180.342 Y96.172 E.01682
G1 X172.962 Y88.792 E.32815
G1 X172.427 Y88.792 E.01682
G1 X180.342 Y96.707 E.35194
G1 X180.342 Y97.242 E.01682
G1 X171.893 Y88.792 E.3757
G1 X171.358 Y88.792 E.01682
G1 X180.342 Y97.777 E.39949
G1 X180.342 Y98.312 E.01682
G1 X170.823 Y88.792 E.42328
G1 X170.288 Y88.792 E.01682
G1 X180.342 Y98.846 E.44704
G1 X180.343 Y99.381 E.01682
G1 X169.753 Y88.792 E.47086
G1 X169.219 Y88.792 E.01679
G1 X180.343 Y99.916 E.49462
G1 X180.343 Y100.451 E.01682
G1 X168.684 Y88.792 E.51841
G1 X168.149 Y88.792 E.01682
G1 X180.343 Y100.986 E.5422
G1 X180.343 Y101.521 E.01682
G1 X167.614 Y88.792 E.56599
G1 X167.079 Y88.792 E.01682
G1 X180.343 Y102.056 E.58978
G1 X180.344 Y102.591 E.01682
G1 X166.545 Y88.792 E.61356
G1 X166.01 Y88.792 E.01682
G1 X180.344 Y103.126 E.63735
G1 X180.344 Y103.661 E.01682
G1 X165.475 Y88.792 E.66114
G1 X164.94 Y88.792 E.01682
G1 X180.344 Y104.195 E.68491
G1 X180.344 Y104.73 E.01682
G1 X164.406 Y88.792 E.70867
G1 X163.871 Y88.792 E.01682
G1 X180.344 Y105.265 E.73246
G1 X180.344 Y105.8 E.01682
G1 X163.336 Y88.792 E.75625
G1 X162.801 Y88.792 E.01682
G1 X180.345 Y106.335 E.78006
G1 X180.345 Y106.87 E.01682
G1 X162.266 Y88.792 E.80385
G1 X161.732 Y88.791 E.01679
G1 X180.345 Y107.405 E.82764
G1 X180.345 Y107.94 E.01682
G1 X161.197 Y88.791 E.85143
G1 X160.662 Y88.791 E.01682
G1 X180.345 Y108.475 E.87521
G1 X180.345 Y108.915 E.01383
G1 X180.251 Y108.915 E.00296
G1 X160.127 Y88.791 E.8948
G1 X159.592 Y88.791 E.01682
G1 X179.716 Y108.915 E.8948
G1 X179.182 Y108.915 E.01679
G1 X159.058 Y88.791 E.8948
G1 X158.523 Y88.791 E.01682
G1 X178.647 Y108.915 E.8948
G1 X178.112 Y108.915 E.01682
G1 X157.988 Y88.791 E.8948
G1 X157.453 Y88.791 E.01682
G1 X177.577 Y108.915 E.8948
G1 X177.043 Y108.915 E.01679
G1 X156.918 Y88.791 E.89482
G1 X156.384 Y88.791 E.01679
G1 X176.508 Y108.915 E.8948
G1 X175.973 Y108.915 E.01682
G1 X155.849 Y88.791 E.8948
G1 X155.314 Y88.791 E.01682
G1 X175.438 Y108.915 E.8948
G1 X174.904 Y108.915 E.01679
G1 X154.779 Y88.791 E.89482
G1 X154.244 Y88.791 E.01682
G1 X174.369 Y108.915 E.89482
G1 X173.834 Y108.915 E.01682
G1 X153.71 Y88.791 E.8948
G1 X153.175 Y88.791 E.01682
G1 X173.299 Y108.915 E.8948
G1 X172.765 Y108.915 E.01679
G1 X152.64 Y88.791 E.89482
G1 X152.105 Y88.791 E.01682
G1 X172.23 Y108.915 E.89482
G1 X171.695 Y108.915 E.01682
G1 X151.571 Y88.791 E.8948
G1 X151.036 Y88.791 E.01682
G1 X171.16 Y108.915 E.8948
G1 X170.626 Y108.915 E.01679
G1 X150.501 Y88.791 E.89482
G1 X149.966 Y88.791 E.01682
G1 X170.091 Y108.915 E.89482
G1 X169.556 Y108.915 E.01682
G1 X149.431 Y88.79 E.89485
G1 X148.897 Y88.79 E.01679
G1 X169.021 Y108.915 E.89482
G1 X168.487 Y108.915 E.01679
G1 X148.362 Y88.79 E.89485
G1 X147.827 Y88.79 E.01682
