; generated by PrusaSlicer 2.7.1+win64 on 2024-02-15 at 12:59:45 UTC

; 

; external perimeters extrusion width = 0.42mm
; perimeters extrusion width = 0.44mm
; infill extrusion width = 0.44mm
; solid infill extrusion width = 0.44mm
; top infill extrusion width = 0.40mm
; first layer extrusion width = 0.42mm

M201 X500 Y500 Z100 E5000 ; sets maximum accelerations, mm/sec^2
M203 X500 Y500 Z10 E60 ; sets maximum feedrates, mm / sec
M204 S500 T1000 ; sets acceleration (S) and retract acceleration (R), mm/sec^2
M205 X8.00 Y8.00 Z0.40 E5.00 ; sets the jerk limits, mm/sec
M205 S0 T0 ; sets the minimum extruding and travel feed rate, mm/sec

; printing object QFH_Cap v1.stl id:0 copy 0
; stop printing object QFH_Cap v1.stl id:0 copy 0

;TYPE:Custom
G90 ; use absolute coordinates
M83 ; extruder relative mode
M104 S150 ; set temporary nozzle temp to prevent oozing during homing
M140 S90 ; set final bed temp
G4 S30 ; allow partial nozzle warmup
G28 ; home all axis
G1 Z50 F240
G1 X2.0 Y10 F3000
M104 S220 ; set final nozzle temp
M190 S90 ; wait for bed temp to stabilize
M109 S220 ; wait for nozzle temp to stabilize
G1 Z0.28 F240
G92 E0
G1 X2.0 Y140 E10 F1500 ; prime the nozzle
G1 X2.3 Y140 F5000
G92 E0
G1 X2.3 Y10 E10 F1200 ; prime the nozzle
G92 E0
G21 ; set units to millimeters
G90 ; use absolute coordinates
M83 ; use relative distances for extrusion
; Filament gcode
M107
;LAYER_CHANGE
;Z:0.2
;HEIGHT:0.2
;BEFORE_LAYER_CHANGE
G92 E0
;0.2


G1 E-6 F3600
G1 Z.2 F9000
;AFTER_LAYER_CHANGE
;0.2
G1 X95.984 Y38.955
G1 Z.2
G1 E6 F2400
M204 S500
;TYPE:Skirt/Brim
;WIDTH:0.42
G1 F1200
G1 X97.314 Y36.422 E.0897
G1 X98.257 Y34.964 E.05444
G1 X100.021 Y32.712 E.08969
G1 X102.179 Y30.536 E.09609
G1 X103.513 Y29.424 E.05445
G1 X106.042 Y27.694 E.09607
G1 X108.575 Y26.364 E.0897
G1 X110.18 Y25.7 E.05446
G1 X113.109 Y24.8 E.09607
G1 X115.923 Y24.284 E.0897
G1 X117.652 Y24.127 E.05443
G1 X120.513 Y24.127 E.0897
G1 X122.243 Y24.284 E.05447
G1 X125.254 Y24.849 E.09606
G1 X127.986 Y25.7 E.08972
G1 X129.59 Y26.364 E.05443
G1 X132.123 Y27.694 E.0897
G1 X134.652 Y29.424 E.09607
G1 X135.986 Y30.536 E.05445
G1 X138.009 Y32.559 E.0897
G1 X139.121 Y33.893 E.05445
G1 X140.851 Y36.422 E.09607
G1 X142.181 Y38.955 E.0897
G1 X142.845 Y40.559 E.05443
G1 X143.696 Y43.291 E.08972
G1 X144.061 Y44.989 E.05446
G1 X144.406 Y47.828 E.08967
G1 X144.418 Y50.893 E.0961
G1 X144.261 Y52.622 E.05443
G1 X143.745 Y55.436 E.0897
G1 X142.845 Y58.365 E.09607
G1 X142.181 Y59.97 E.05446
G1 X140.851 Y62.503 E.0897
G1 X139.121 Y65.032 E.09607
G1 X138.009 Y66.366 E.05445
G1 X135.986 Y68.389 E.0897
G1 X134.652 Y69.501 E.05445
G1 X132.298 Y71.126 E.08969
G1 X130.785 Y71.979 E.05446
G1 X127.986 Y73.225 E.09606
G1 X125.254 Y74.076 E.08972
G1 X123.556 Y74.441 E.05446
G1 X120.717 Y74.785 E.08967
G1 X117.652 Y74.798 E.0961
G1 X115.923 Y74.641 E.05443
G1 X113.109 Y74.125 E.0897
G1 X110.18 Y73.225 E.09607
G1 X108.575 Y72.56 E.05447
G1 X106.042 Y71.231 E.08969
G1 X103.513 Y69.501 E.09607
G1 X102.179 Y68.389 E.05445
G1 X100.156 Y66.366 E.0897
G1 X99.044 Y65.032 E.05445
G1 X97.314 Y62.503 E.09607
G1 X95.985 Y59.97 E.08969
G1 X95.32 Y58.365 E.05447
G1 X94.42 Y55.436 E.09607
G1 X93.904 Y52.622 E.0897
G1 X93.747 Y50.893 E.05443
G1 X93.747 Y48.032 E.0897
G1 X93.904 Y46.302 E.05447
G1 X94.42 Y43.489 E.08967
G1 X94.886 Y41.816 E.05445
G1 X95.963 Y39.011 E.09421
; printing object QFH_Cap v1.stl id:0 copy 0
G1 E-4.2 F3600
;WIPE_START
G1 F7200
G1 X95.984 Y38.955 E-.02841
G1 X97.314 Y36.422 E-1.35895
G1 X97.786 Y35.692 E-.41264
;WIPE_END
G1 X99.992 Y40.87 F9000
G1 E6 F2400
;TYPE:Perimeter
;WIDTH:0.419999
G1 F1200
G1 X100.545 Y39.733 E.03964
G1 X101.167 Y38.632 E.03965
G1 X101.853 Y37.57 E.03964
G1 X102.603 Y36.551 E.03967
G1 X103.412 Y35.58 E.03963
G1 X104.279 Y34.659 E.03966
G1 X105.2 Y33.792 E.03966
G1 X106.171 Y32.982 E.03965
G1 X107.19 Y32.233 E.03965
G1 X108.252 Y31.546 E.03966
G1 X109.353 Y30.925 E.03963
G1 X110.49 Y30.371 E.03966
G1 X111.659 Y29.888 E.03966
G1 X112.854 Y29.475 E.03964
G1 X114.072 Y29.135 E.03965
G1 X115.309 Y28.87 E.03967
G1 X116.559 Y28.68 E.03964
G1 X117.818 Y28.565 E.03964
G1 X119.093 Y28.527 E.03999
G1 X120.347 Y28.565 E.03934
G1 X121.606 Y28.68 E.03964
G1 X122.856 Y28.87 E.03964
G1 X124.093 Y29.135 E.03967
G1 X125.311 Y29.475 E.03965
G1 X126.506 Y29.888 E.03964
G1 X127.675 Y30.371 E.03966
G1 X128.812 Y30.925 E.03966
G1 X129.913 Y31.546 E.03963
G1 X130.975 Y32.233 E.03966
G1 X131.994 Y32.982 E.03965
G1 X132.965 Y33.792 E.03965
G1 X133.886 Y34.659 E.03966
G1 X134.753 Y35.58 E.03966
G1 X135.563 Y36.551 E.03965
G1 X136.312 Y37.57 E.03965
G1 X136.999 Y38.632 E.03966
G1 X137.62 Y39.733 E.03963
G1 X138.174 Y40.87 E.03966
G1 X138.657 Y42.039 E.03966
G1 X139.07 Y43.234 E.03964
G1 X139.41 Y44.452 E.03965
G1 X139.675 Y45.689 E.03967
G1 X139.865 Y46.939 E.03964
G1 X139.98 Y48.198 E.03964
G1 X140.018 Y49.462 E.03965
G1 X139.999 Y50.094 E.01982
G1 X139.98 Y50.726 E.01982
G1 X139.865 Y51.986 E.03967
G1 X139.675 Y53.236 E.03964
G1 X139.41 Y54.473 E.03967
G1 X139.07 Y55.691 E.03965
G1 X138.657 Y56.886 E.03964
G1 X138.174 Y58.055 E.03966
G1 X137.62 Y59.192 E.03966
G1 X136.999 Y60.293 E.03963
G1 X136.312 Y61.355 E.03966
G1 X135.563 Y62.374 E.03965
G1 X134.753 Y63.345 E.03965
G1 X133.886 Y64.266 E.03966
G1 X132.965 Y65.133 E.03966
G1 X131.994 Y65.942 E.03963
G1 X130.975 Y66.692 E.03967
G1 X129.913 Y67.378 E.03964
G1 X128.812 Y68 E.03965
G1 X127.675 Y68.553 E.03964
G1 X126.506 Y69.037 E.03967
G1 X125.311 Y69.45 E.03964
G1 X124.093 Y69.789 E.03964
G1 X122.856 Y70.055 E.03967
G1 X121.606 Y70.245 E.03964
G1 X120.347 Y70.36 E.03964
G1 X119.083 Y70.398 E.03965
G1 X117.819 Y70.36 E.03965
G1 X116.559 Y70.245 E.03967
G1 X115.309 Y70.055 E.03964
G1 X114.072 Y69.789 E.03967
G1 X112.854 Y69.45 E.03964
G1 X111.659 Y69.037 E.03964
G1 X110.49 Y68.553 E.03967
G1 X109.353 Y68 E.03964
G1 X108.252 Y67.378 E.03965
G1 X107.19 Y66.692 E.03964
G1 X106.171 Y65.942 E.03967
G1 X105.2 Y65.133 E.03963
G1 X104.279 Y64.266 E.03966
G1 X103.412 Y63.345 E.03966
G1 X102.603 Y62.374 E.03963
G1 X101.853 Y61.355 E.03967
G1 X101.166 Y60.293 E.03966
G1 X100.545 Y59.192 E.03963
G1 X99.992 Y58.055 E.03964
G1 X99.508 Y56.886 E.03967
G1 X99.095 Y55.691 E.03964
G1 X98.756 Y54.473 E.03964
G1 X98.49 Y53.236 E.03967
G1 X98.3 Y51.986 E.03964
G1 X98.185 Y50.726 E.03967
G1 X98.147 Y49.462 E.03965
G1 X98.185 Y48.198 E.03965
G1 X98.3 Y46.939 E.03964
G1 X98.49 Y45.689 E.03964
G1 X98.756 Y44.452 E.03967
G1 X99.095 Y43.234 E.03964
G1 X99.512 Y42.029 E.03998
G1 X99.969 Y40.926 E.03743
G1 X99.648 Y40.715 F9000
G1 F1200
G1 X100.211 Y39.558 E.04034
G1 X100.844 Y38.437 E.04036
G1 X101.543 Y37.355 E.04039
G1 X102.306 Y36.319 E.04034
G1 X103.13 Y35.33 E.04036
G1 X104.012 Y34.392 E.04037
G1 X104.95 Y33.51 E.04037
G1 X105.939 Y32.685 E.04038
G1 X106.976 Y31.922 E.04037
G1 X108.057 Y31.223 E.04036
G1 X109.178 Y30.591 E.04035
G1 X110.336 Y30.027 E.04039
G1 X111.525 Y29.535 E.04035
G1 X112.742 Y29.115 E.04037
G1 X113.982 Y28.769 E.04036
G1 X115.241 Y28.499 E.04037
G1 X116.514 Y28.305 E.04037
G1 X117.796 Y28.189 E.04036
G1 X119.093 Y28.15 E.04068
G1 X120.369 Y28.189 E.04003
G1 X121.652 Y28.305 E.04039
G1 X122.924 Y28.499 E.04034
G1 X124.183 Y28.769 E.04037
G1 X125.423 Y29.115 E.04036
G1 X126.64 Y29.535 E.04037
G1 X127.83 Y30.027 E.04037
G1 X128.987 Y30.591 E.04036
G1 X130.108 Y31.223 E.04035
G1 X131.19 Y31.922 E.04039
G1 X132.226 Y32.685 E.04034
G1 X133.215 Y33.51 E.04038
G1 X134.153 Y34.392 E.04037
G1 X135.035 Y35.33 E.04037
G1 X135.86 Y36.319 E.04038
G1 X136.623 Y37.355 E.04034
G1 X137.322 Y38.437 E.04039
G1 X137.954 Y39.558 E.04035
G1 X138.518 Y40.715 E.04036
G1 X139.01 Y41.905 E.04037
G1 X139.43 Y43.122 E.04037
G1 X139.776 Y44.362 E.04036
G1 X140.046 Y45.621 E.04037
G1 X140.24 Y46.893 E.04034
G1 X140.356 Y48.176 E.04039
G1 X140.395 Y49.462 E.04034
G1 X140.376 Y50.106 E.0202
G1 X140.356 Y50.749 E.02017
G1 X140.24 Y52.031 E.04036
G1 X140.046 Y53.304 E.04037
G1 X139.776 Y54.563 E.04037
G1 X139.43 Y55.803 E.04036
G1 X139.01 Y57.02 E.04037
G1 X138.518 Y58.209 E.04035
G1 X137.954 Y59.367 E.04039
G1 X137.322 Y60.488 E.04035
G1 X136.623 Y61.569 E.04036
G1 X135.86 Y62.606 E.04037
G1 X135.035 Y63.595 E.04038
G1 X134.153 Y64.533 E.04037
G1 X133.215 Y65.415 E.04037
G1 X132.226 Y66.239 E.04036
G1 X131.19 Y67.002 E.04034
G1 X130.108 Y67.701 E.04039
G1 X128.987 Y68.334 E.04036
G1 X127.83 Y68.897 E.04034
G1 X126.64 Y69.39 E.04039
G1 X125.423 Y69.81 E.04037
G1 X124.183 Y70.156 E.04036
G1 X122.924 Y70.426 E.04037
G1 X121.652 Y70.62 E.04034
G1 X120.369 Y70.736 E.04039
G1 X119.083 Y70.775 E.04034
G1 X117.796 Y70.736 E.04037
G1 X116.514 Y70.62 E.04036
G1 X115.241 Y70.426 E.04037
G1 X113.982 Y70.156 E.04037
G1 X112.742 Y69.81 E.04036
G1 X111.525 Y69.39 E.04037
G1 X110.336 Y68.897 E.04036
G1 X109.178 Y68.334 E.04037
G1 X108.057 Y67.701 E.04036
G1 X106.976 Y67.002 E.04036
G1 X105.939 Y66.239 E.04037
G1 X104.95 Y65.415 E.04036
G1 X104.012 Y64.533 E.04037
G1 X103.13 Y63.595 E.04037
G1 X102.306 Y62.606 E.04036
G1 X101.543 Y61.569 E.04037
G1 X100.844 Y60.488 E.04036
G1 X100.211 Y59.367 E.04036
G1 X99.648 Y58.209 E.04037
G1 X99.155 Y57.02 E.04036
G1 X98.735 Y55.803 E.04037
G1 X98.389 Y54.563 E.04036
G1 X98.119 Y53.304 E.04037
G1 X97.925 Y52.031 E.04037
G1 X97.809 Y50.749 E.04036
G1 X97.77 Y49.462 E.04037
G1 X97.809 Y48.176 E.04034
G1 X97.925 Y46.893 E.04039
G1 X98.119 Y45.621 E.04034
G1 X98.389 Y44.362 E.04037
G1 X98.735 Y43.122 E.04036
G1 X99.159 Y41.896 E.04067
G1 X99.625 Y40.771 E.03818
G1 X99.304 Y40.561 F9000
;TYPE:External perimeter
G1 F1200
G1 X99.877 Y39.383 E.04107
G1 X100.521 Y38.241 E.04111
G1 X101.232 Y37.141 E.04107
G1 X102.009 Y36.086 E.04108
G1 X102.848 Y35.079 E.0411
G1 X103.746 Y34.125 E.04108
G1 X104.7 Y33.227 E.04108
G1 X105.706 Y32.388 E.04107
G1 X106.761 Y31.612 E.04106
G1 X107.862 Y30.901 E.04109
G1 X109.003 Y30.257 E.04108
G1 X110.181 Y29.683 E.04109
G1 X111.391 Y29.182 E.04106
G1 X112.63 Y28.755 E.04109
G1 X113.892 Y28.403 E.04108
G1 X115.173 Y28.128 E.04108
G1 X116.468 Y27.931 E.04107
G1 X117.773 Y27.812 E.04109
G1 X119.093 Y27.773 E.04141
G1 X120.392 Y27.812 E.04075
G1 X121.697 Y27.931 E.04109
G1 X122.992 Y28.128 E.04107
G1 X124.273 Y28.403 E.04108
G1 X125.535 Y28.755 E.04108
G1 X126.774 Y29.182 E.04109
G1 X127.984 Y29.683 E.04106
G1 X129.162 Y30.257 E.04109
G1 X130.304 Y30.901 E.04111
G1 X131.404 Y31.612 E.04107
G1 X132.459 Y32.388 E.04106
G1 X133.466 Y33.227 E.0411
G1 X134.42 Y34.125 E.04108
G1 X135.318 Y35.079 E.04108
G1 X136.156 Y36.086 E.04108
G1 X136.933 Y37.141 E.04108
G1 X137.644 Y38.241 E.04107
G1 X138.288 Y39.383 E.04111
G1 X138.862 Y40.561 E.04109
G1 X139.363 Y41.771 E.04106
G1 X139.79 Y43.01 E.04109
G1 X140.142 Y44.272 E.04108
G1 X140.417 Y45.553 E.04108
G1 X140.614 Y46.848 E.04107
G1 X140.733 Y48.153 E.04109
G1 X140.772 Y49.462 E.04106
G1 X140.753 Y50.117 E.02055
G1 X140.733 Y50.772 E.02055
G1 X140.614 Y52.077 E.04109
G1 X140.417 Y53.372 E.04107
G1 X140.142 Y54.653 E.04108
G1 X139.79 Y55.915 E.04108
G1 X139.363 Y57.154 E.04109
G1 X138.862 Y58.364 E.04106
G1 X138.288 Y59.542 E.04109
G1 X137.644 Y60.683 E.04108
G1 X136.933 Y61.784 E.04109
G1 X136.156 Y62.839 E.04108
G1 X135.318 Y63.845 E.04105
G1 X134.42 Y64.799 E.04108
G1 X133.466 Y65.697 E.04108
G1 X132.459 Y66.536 E.0411
G1 X131.404 Y67.313 E.04108
G1 X130.304 Y68.024 E.04107
G1 X129.162 Y68.668 E.04111
G1 X127.984 Y69.241 E.04107
G1 X126.774 Y69.743 E.04107
G1 X125.535 Y70.17 E.04109
G1 X124.273 Y70.522 E.04108
G1 X122.992 Y70.797 E.04108
G1 X121.697 Y70.994 E.04107
G1 X120.392 Y71.113 E.04109
G1 X119.083 Y71.152 E.04106
G1 X117.773 Y71.113 E.04109
G1 X116.468 Y70.994 E.04109
G1 X115.173 Y70.797 E.04107
G1 X113.892 Y70.522 E.04108
G1 X112.63 Y70.17 E.04108
G1 X111.391 Y69.743 E.04109
G1 X110.181 Y69.241 E.04107
G1 X109.003 Y68.668 E.04107
G1 X107.862 Y68.024 E.04108
G1 X106.761 Y67.313 E.04109
G1 X105.706 Y66.536 E.04108
G1 X104.7 Y65.697 E.04107
G1 X103.746 Y64.799 E.04108
G1 X102.848 Y63.845 E.04108
G1 X102.009 Y62.839 E.04107
G1 X101.232 Y61.784 E.04108
G1 X100.521 Y60.683 E.04109
G1 X99.877 Y59.542 E.04108
G1 X99.304 Y58.364 E.04107
G1 X98.802 Y57.154 E.04107
G1 X98.375 Y55.915 E.04109
G1 X98.023 Y54.653 E.04108
G1 X97.748 Y53.372 E.04108
G1 X97.551 Y52.077 E.04107
G1 X97.432 Y50.772 E.04109
G1 X97.393 Y49.462 E.04109
G1 X97.432 Y48.153 E.04106
G1 X97.551 Y46.848 E.04109
G1 X97.748 Y45.553 E.04107
G1 X98.023 Y44.272 E.04108
G1 X98.375 Y43.01 E.04108
G1 X98.806 Y41.762 E.0414
G1 X99.281 Y40.616 E.0389
G1 E-4.2 F3600
;WIPE_START
G1 F7200
G1 X99.304 Y40.561 E-.02832
G1 X99.877 Y39.383 E-.62223
G1 X100.521 Y38.241 E-.62276
G1 X101.123 Y37.31 E-.52669
;WIPE_END
G1 X131.819 Y33.003 F9000
G1 E6 F2400
;TYPE:Solid infill
;WIDTH:0.42171
G1 F1200
G1 X133.699 Y34.884 E.08376
G1 X134.535 Y35.772 E.03841
G1 X135.334 Y36.73 E.03929
G1 X136.18 Y37.901 E.0455
G1 X130.644 Y32.365 E.24659
G1 X129.763 Y31.795 E.03305
G1 X129.249 Y31.505 E.01859
G1 X137.04 Y39.296 E.34703
G1 X137.363 Y39.868 E.02069
G1 X137.634 Y40.426 E.01954
G1 X128.119 Y30.911 E.42382
G1 X127.555 Y30.636 E.01976
G1 X127.134 Y30.462 E.01435
G1 X138.083 Y41.411 E.4877
G1 X138.442 Y42.306 E.03037
G1 X126.239 Y30.103 E.54356
G1 X125.421 Y29.82 E.02726
G1 X138.725 Y43.124 E.5926
G1 X138.95 Y43.884 E.02496
G1 X124.661 Y29.595 E.63647
G1 X123.926 Y29.397 E.02398
G1 X139.148 Y44.619 E.67803
G1 X139.295 Y45.301 E.02197
G1 X123.244 Y29.25 E.71496
G1 X122.58 Y29.122 E.0213
G1 X139.423 Y45.965 E.75023
G1 X139.52 Y46.597 E.02014
G1 X121.948 Y29.025 E.78271
G1 X121.333 Y28.946 E.01953
G1 X139.599 Y47.212 E.81362
G1 X139.652 Y47.801 E.01863
G1 X120.744 Y28.893 E.84222
G1 X120.166 Y28.85 E.01826
G1 X139.695 Y48.379 E.86988
G1 X139.711 Y48.931 E.01739
G1 X119.614 Y28.834 E.89518
G1 X119.063 Y28.819 E.01736
G1 X139.727 Y49.483 E.92043
G1 X139.711 Y50.003 E.01639
G1 X118.543 Y28.834 E.9429
G1 X118.023 Y28.85 E.01639
G1 X139.695 Y50.523 E.96535
G1 X139.661 Y51.024 E.01582
G1 X117.521 Y28.884 E.98618
G1 X117.03 Y28.928 E.01553
G1 X139.617 Y51.515 E1.00609
G1 X139.569 Y52.003 E.01544
G1 X116.542 Y28.976 E1.02569
G1 X116.077 Y29.047 E.01482
G1 X139.498 Y52.468 E1.04324
G1 X139.427 Y52.933 E.01482
G1 X115.612 Y29.118 E1.06079
G1 X115.158 Y29.199 E.01453
G1 X139.346 Y53.387 E1.0774
G1 X139.251 Y53.828 E.01421
G1 X114.717 Y29.294 E1.09281
G1 X114.276 Y29.389 E.01421
G1 X139.156 Y54.269 E1.10822
G1 X139.046 Y54.695 E.01386
G1 X113.85 Y29.499 E1.1223
G1 X113.431 Y29.615 E.01369
G1 X138.929 Y55.114 E1.13577
G1 X138.813 Y55.532 E.01366
G1 X113.013 Y29.732 E1.1492
G1 X112.611 Y29.866 E.01335
G1 X138.679 Y55.934 E1.16114
G1 X138.541 Y56.333 E.0133
G1 X112.212 Y30.004 E1.17277
G1 X111.814 Y30.141 E.01326
G1 X138.404 Y56.731 E1.18439
G1 X138.25 Y57.112 E.01294
G1 X111.433 Y30.295 E1.1945
G1 X111.054 Y30.452 E.01292
G1 X138.093 Y57.491 E1.20439
G1 X137.936 Y57.87 E.01292
G1 X110.675 Y30.609 E1.21428
G1 X110.312 Y30.781 E.01265
G1 X137.764 Y58.233 E1.22279
G1 X137.588 Y58.593 E.01262
G1 X109.952 Y30.957 E1.23098
G1 X109.591 Y31.132 E.01264
G1 X137.413 Y58.954 E1.23927
G1 X137.225 Y59.301 E.01243
G1 X109.244 Y31.32 E1.24635
G1 X108.901 Y31.513 E.0124
G1 X137.032 Y59.644 E1.25303
G1 X136.838 Y59.986 E.01238
G1 X108.559 Y31.707 E1.25963
G1 X108.225 Y31.909 E.01229
G1 X136.636 Y60.32 E1.26551
G1 X136.425 Y60.645 E.0122
G1 X107.9 Y32.12 E1.27058
G1 X107.575 Y32.33 E.01219
G1 X136.215 Y60.97 E1.27571
G1 X135.999 Y61.29 E.01216
G1 X107.255 Y32.546 E1.28034
G1 X106.946 Y32.773 E.01208
G1 X135.772 Y61.599 E1.28399
G1 X135.545 Y61.907 E.01205
G1 X106.638 Y33 E1.2876
G1 X106.33 Y33.228 E.01207
G1 X135.317 Y62.215 E1.29116
G1 X135.073 Y62.507 E.01199
G1 X106.038 Y33.472 E1.2933
G1 X105.746 Y33.715 E.01197
G1 X134.83 Y62.799 E1.29548
G1 X134.586 Y63.091 E.01199
G1 X105.454 Y33.959 E1.29762
G1 X105.174 Y34.215 E.01195
G1 X134.33 Y63.371 E1.29869
G1 X134.07 Y63.647 E.01194
G1 X104.898 Y34.475 E1.2994
G1 X104.622 Y34.734 E.01192
G1 X133.811 Y63.923 E1.30016
G1 X133.681 Y64.061 E.00597
G1 X133.543 Y64.19 E.00595
G1 X104.355 Y35.002 E1.30012
G1 X104.095 Y35.278 E.01194
G1 X133.267 Y64.45 E1.2994
G1 X132.991 Y64.71 E.01194
G1 X103.835 Y35.554 E1.29869
